X:8360
T:Kabardynka
S:A. Humenyuk
Q:240
O:Ukraine
M:2/4
L:1/8
A:Ukraine
K:DMin
A A2 B | c2 BA | G2 c2 | G G2 A | B2 AG | A2 F2 :: \
D D2 F | A2 GF | E2 A2 | E E2 F | G2 FE | F2 D2 :|

